public/images/w3c.svg

<?xml version="1.0" encoding="UTF-8" standalone="no"?>
<svg
   xmlns:dc="http://purl.org/dc/elements/1.1/"
   xmlns:cc="http://creativecommons.org/ns#"
   xmlns:rdf="http://www.w3.org/1999/02/22-rdf-syntax-ns#"
   xmlns:svg="http://www.w3.org/2000/svg"
   xmlns="http://www.w3.org/2000/svg"
   xmlns:sodipodi="http://sodipodi.sourceforge.net/DTD/sodipodi-0.dtd"
   xmlns:inkscape="http://www.inkscape.org/namespaces/inkscape"
   inkscape:version="1.0 (4035a4f, 2020-05-01)"
   height="44"
   width="91.968277"
   sodipodi:docname="w3c.svg"
   id="svg110"
   version="1.1"
   viewBox="0 0 91.968277 44">
  <metadata
     id="metadata116">
    <rdf:RDF>
      <cc:Work
         rdf:about="">
        <dc:format>image/svg+xml</dc:format>
        <dc:type
           rdf:resource="http://purl.org/dc/dcmitype/StillImage" />
        <dc:title></dc:title>
      </cc:Work>
    </rdf:RDF>
  </metadata>
  <defs
     id="defs114" />
  <sodipodi:namedview
     inkscape:current-layer="g108"
     inkscape:window-maximized="1"
     inkscape:window-y="23"
     inkscape:window-x="0"
     inkscape:cy="9.7983027"
     inkscape:cx="179.62778"
     inkscape:zoom="3.23"
     fit-margin-bottom="0"
     fit-margin-right="0"
     fit-margin-left="0"
     fit-margin-top="0"
     showgrid="false"
     id="namedview112"
     inkscape:window-height="1005"
     inkscape:window-width="1680"
     inkscape:pageshadow="2"
     inkscape:pageopacity="0"
     guidetolerance="10"
     gridtolerance="10"
     objecttolerance="10"
     borderopacity="1"
     bordercolor="#666666"
     pagecolor="#ffffff" />
  <g
     transform="matrix(0.99965517,0,0,1,0,-16)"
     id="g108"
     fill-rule="evenodd"
     fill="none">
    <path
       style="stroke-width:0.436869"
       id="path96"
       fill="#015a9c"
       d="M -0.23120815,15.789474 H 92.718346 V 60.448916 H -0.23120815 Z" />
    <g
       id="g106"
       transform="translate(0,16)"
       fill-rule="nonzero"
       fill="#ffffff">
      <path
         id="path98"
         d="M 21.759911,0 29.55073,26.78023 37.341549,0 h 5.641208 15.481531 V 2.6616102 L 50.511132,16.514019 c 2.793548,0.906808 4.906633,2.554927 6.339257,4.944358 C 58.283012,23.849176 59,26.654398 59,29.87678 59,33.862356 57.951574,37.211937 55.856075,39.926888 53.760576,42.64184 51.046844,44 47.716231,44 45.208126,44 43.023342,43.194405 41.161878,41.583214 39.299062,39.972024 37.920551,37.790488 37.024992,35.03724 l 4.404742,-1.846441 c 0.645289,1.6659 1.496205,2.978924 2.552748,3.937706 1.056543,0.960149 2.301126,1.438856 3.733749,1.438856 1.504322,0 2.775962,-0.850731 3.814918,-2.552192 1.038956,-1.702828 1.558434,-3.747591 1.558434,-6.139757 0,-2.64383 -0.556004,-4.68996 -1.665306,-6.13839 -1.290578,-1.701461 -3.314379,-2.553559 -6.072753,-2.553559 H 43.203265 V 18.576562 L 50.724876,5.4299036 H 41.644831 L 41.128058,6.3189307 30.085089,43.997264 H 29.548025 L 21.487997,16.728753 13.429321,43.997264 H 12.892257 L 0,0 H 5.6412079 L 13.432027,26.78023 18.697154,8.7466584 16.118703,0 Z" />
      <path
         id="path100"
         d="M 87.988158,0 C 86.910526,0 85.943421,0.38822175 85.210526,1.1330811 84.432895,1.9226846 84,2.9439053 84,3.999342 84,5.0547787 84.411842,6.0325711 85.167105,6.7998026 85.934211,7.5775621 86.922368,8 87.989474,8 89.032895,8 90.044737,7.5775621 90.832895,6.8116466 91.588158,6.0786313 92,5.1008389 92,4.000658 92,2.9333772 91.577632,1.9345287 90.844737,1.1896693 90.076316,0.41059385 89.076316,0 87.988158,0 Z m 3.477631,4.0335581 c 0,0.9225202 -0.356578,1.777924 -1.010526,2.4109229 C 89.76579,7.111696 88.910526,7.4670176 87.965789,7.4670176 87.077632,7.4670176 86.2,7.101168 85.544737,6.4339529 84.889474,5.766738 84.522368,4.9113341 84.522368,4.000658 c 0,-0.9106761 0.377632,-1.8002961 1.055264,-2.4885672 0.632894,-0.6448429 1.488157,-0.98832044 2.421052,-0.98832044 0.955263,0 1.810526,0.3566376 2.477632,1.03306464 0.644737,0.6435269 0.989473,1.5094588 0.989473,2.4767231 z M 88.098684,1.6555355 h -1.710526 v 4.5336404 h 0.855263 V 4.2559632 h 0.844737 l 0.922368,1.9332127 h 0.955263 L 88.953947,4.1230466 C 89.609211,3.988814 89.986842,3.54532 89.986842,2.9004771 c 0,-0.8225037 -0.621052,-1.2449416 -1.888158,-1.2449416 z M 87.943421,2.21089 c 0.8,0 1.165789,0.222405 1.165789,0.7777595 0,0.5329824 -0.365789,0.7224872 -1.144736,0.7224872 H 87.242105 V 2.21089 Z" />
      <path
         id="path102"
         d="M 82.137124,0 83,5.91408 l -3.051978,6.588 c 0,0 -1.171776,-2.79504 -3.118353,-4.3416 -1.640231,-1.3032 -2.708615,-1.58688 -4.37948,-1.19808 -2.145703,0.49968 -4.578605,3.39408 -5.640607,6.9624 -1.270062,4.2696 -1.282826,6.336 -1.327502,8.23392 C 65.410599,25.20144 65.835655,27 65.835655,27 c 0,0 -1.853397,-3.86784 -1.835527,-9.5328 0.01149,-4.04352 0.575677,-7.70976 2.233778,-11.32848 1.458975,-3.18096 3.627654,-5.0904 5.552532,-5.31504 1.989976,-0.23184 3.562556,0.8496 4.777731,2.02032 1.276444,1.22976 2.565652,3.91824 2.565652,3.91824 z" />
      <path
         id="path104"
         d="m 82.230101,31.823621 c 0,0 -1.338458,2.567361 -2.171671,3.556793 -0.834479,0.989433 -2.326158,2.731813 -4.168596,3.603004 -1.842439,0.87119 -2.808611,1.035642 -4.629523,0.848085 -1.819645,-0.187558 -3.51013,-1.318338 -4.10275,-1.789949 C 66.564942,37.569942 65.05047,36.180931 64.194464,34.885698 63.338459,33.590465 62,31 62,31 c 0,0 0.745839,2.595902 1.213097,3.698141 0.268451,0.634705 1.094066,2.574156 2.265376,4.262172 1.0928,1.575209 3.215087,4.286635 6.440304,4.898235 3.225217,0.612959 5.441208,-0.941864 5.989508,-1.318337 0.5483,-0.376474 1.704414,-1.416194 2.436324,-2.256124 0.763568,-0.876627 1.486614,-1.995175 1.886759,-2.666576 C 82.523878,37.128231 83,36.133362 83,36.133362 Z" />
    </g>
  </g>
</svg>

<svg xmlns="http://www.w3.org/2000/svg" height="44" width="91.968">
   <g fill-rule="evenodd" fill="none"><path fill="#015a9c" d="M-.231-.21h92.917v44.659H-.23z"/>
      <g fill-rule="nonzero" fill="#fff"><path d="M21.752 0l7.789 26.78L37.329 0H58.444v2.662l-7.95 13.852c2.792.907 4.905 2.555 6.337 4.944 1.432 2.391 2.149 5.196 2.149 8.419 0 3.985-1.048 7.335-3.143 10.05C53.742 42.642 51.029 44 47.7 44c-2.507 0-4.691-.806-6.552-2.417-1.862-1.611-3.24-3.793-4.136-6.546l4.403-1.846c.646 1.666 1.496 2.979 2.552 3.938 1.056.96 2.3 1.438 3.733 1.438 1.504 0 2.775-.85 3.813-2.552 1.039-1.703 1.558-3.747 1.558-6.14 0-2.643-.556-4.69-1.664-6.138-1.29-1.701-3.314-2.554-6.071-2.554h-2.148v-2.606l7.52-13.147H41.63l-.516.889-11.04 37.678h-.536L21.48 16.73l-8.056 27.268h-.537L0 0h5.64l7.787 26.78 5.264-18.033L16.113 0zM87.958 0c-1.077 0-2.044.388-2.777 1.133-.777.79-1.21 1.81-1.21 2.866s.412 2.034 1.167 2.8C85.905 7.579 86.892 8 87.959 8c1.043 0 2.055-.422 2.843-1.188.755-.733 1.166-1.711 1.166-2.811a3.997 3.997 0 00-1.155-2.811A3.946 3.946 0 0087.958 0zm3.476 4.034a3.32 3.32 0 01-1.01 2.41c-.69.668-1.544 1.023-2.489 1.023a3.405 3.405 0 01-2.42-1.033c-.655-.667-1.022-1.523-1.022-2.433 0-.911.378-1.8 1.055-2.489.633-.645 1.488-.988 2.42-.988.955 0 1.81.356 2.477 1.033.645.643.99 1.51.99 2.477zm-3.366-2.378h-1.71v4.533h.855V4.256h.845l.922 1.933h.955l-1.012-2.066c.655-.134 1.033-.578 1.033-1.223 0-.822-.621-1.244-1.888-1.244zm-.155.555c.8 0 1.165.222 1.165.778 0 .533-.365.722-1.144.722h-.722v-1.5zM82.109 0l.862 5.914-3.05 6.588s-1.172-2.795-3.118-4.342c-1.64-1.303-2.708-1.586-4.378-1.198-2.145.5-4.577 3.394-5.638 6.963-1.27 4.27-1.283 6.336-1.328 8.234-.071 3.042.354 4.841.354 4.841s-1.853-3.868-1.835-9.533c.012-4.043.576-7.71 2.233-11.328 1.459-3.181 3.626-5.09 5.55-5.315 1.99-.232 3.562.85 4.777 2.02 1.276 1.23 2.565 3.918 2.565 3.918zM82.202 31.824s-1.338 2.567-2.171 3.556c-.834.99-2.326 2.732-4.167 3.603-1.842.872-2.808 1.036-4.628.849-1.82-.188-3.51-1.319-4.102-1.79-.592-.472-2.106-1.861-2.962-3.156C63.317 33.59 61.98 31 61.98 31s.745 2.596 1.212 3.698c.269.635 1.094 2.574 2.265 4.262 1.092 1.576 3.214 4.287 6.438 4.899 3.224.613 5.44-.942 5.987-1.319.549-.376 1.704-1.416 2.436-2.256.763-.877 1.486-1.995 1.886-2.666.292-.49.768-1.485.768-1.485z"/></g>
   </g>
</svg>
